svgs/solid/circle-right.svg

<svg xmlns="http://www.w3.org/2000/svg" viewBox="0 0 512 512"><!--! Font Awesome Pro 6.0.0-alpha3 by @fontawesome - https://fontawesome.com License - https://fontawesome.com/license (Commercial License) --><path d="M512 256c0-141.4-114.6-256-256-256S0 114.6 0 256c0 141.4 114.6 256 256 256S512 397.4 512 256zM265.9 382.8C259.9 380.3 256 374.5 256 368v-64H160c-17.67 0-32-14.33-32-32v-32c0-17.67 14.33-32 32-32h96v-64c0-6.469 3.891-12.31 9.875-14.78c5.984-2.484 12.86-1.109 17.44 3.469l112 112c6.248 6.248 6.248 16.38 0 22.62l-112 112C278.7 383.9 271.9 385.3 265.9 382.8z"/></svg>

<svg xmlns="http://www.w3.org/2000/svg" viewBox="0 0 512 512"><!-- Font Awesome Pro 6.0.0-alpha2 by @fontawesome - https://fontawesome.com License - https://fontawesome.com/license (Commercial License) --><path d="M496 256C496 123.42 388.58 16 256 16S16 123.42 16 256C16 388.582 123.42 496 256 496S496 388.582 496 256ZM265.875 382.781C259.891 380.312 256 374.469 256 368V304H160C142.327 304 128 289.673 128 272V240C128 222.327 142.327 208 160 208H256V144C256 137.531 259.891 131.688 265.875 129.219C271.859 126.734 278.734 128.109 283.313 132.687L395.313 244.687C401.56 250.935 401.56 261.065 395.313 267.312L283.313 379.312C278.734 383.891 271.859 385.266 265.875 382.781Z"/></svg>
